package/converter/svg/regular/circle-l.svg

<svg xmlns="http://www.w3.org/2000/svg" viewBox="0 0 512 512"><!-- Font Awesome Pro 6.0.0-alpha2 by @fontawesome - https://fontawesome.com License - https://fontawesome.com/license (Commercial License) --><path d="M328 336H208V152C208 138.75 197.25 128 184 128S160 138.75 160 152V360C160 373.25 170.75 384 184 384H328C341.25 384 352 373.25 352 360S341.25 336 328 336ZM256 16C123.451 16 16 123.451 16 256S123.451 496 256 496S496 388.549 496 256S388.549 16 256 16ZM256 448C150.131 448 64 361.869 64 256S150.131 64 256 64S448 150.131 448 256S361.869 448 256 448Z"/></svg>

<svg xmlns="http://www.w3.org/2000/svg" viewBox="0 0 512 512"><!--! Font Awesome Pro 6.6.0 by @fontawesome - https://fontawesome.com License - https://fontawesome.com/license (Commercial License) Copyright 2024 Fonticons, Inc. --><path d="M256 48a208 208 0 1 1 0 416 208 208 0 1 1 0-416zm0 464A256 256 0 1 0 256 0a256 256 0 1 0 0 512zM208 152c0-13.3-10.7-24-24-24s-24 10.7-24 24l0 208c0 13.3 10.7 24 24 24l144 0c13.3 0 24-10.7 24-24s-10.7-24-24-24l-120 0 0-184z"/></svg>
